X:18623
T:Weymouth Reel. HSJJ.133
M:4/4
L:1/8
Q:200
S:HSJ Jackson,Wyresdale,Lancs.1823
R:Reel
O:England
A:Lancashire
H:1823
Z:Chris Partington.
W:Change sides,back again,hands across,back again,lead down the middle,up
W:again,right and left.
K:F
f|ecdB AF~FA|BAGF ECCf|ecdB AF (3F/G/A/|BdcEF2F:|!
|:F|E-GBG A-cfa|BdDG FEDC|AFBG cAdB|AdcEF2F:|]
